Yaru++/apps/scalable/librecad.svg

<svg height="256" width="256" xmlns="http://www.w3.org/2000/svg" xmlns:xlink="http://www.w3.org/1999/xlink">
  <filter id="filter11191" color-interpolation-filters="sRGB" height="1.024" width="1.024" x="-.012" y="-.012">
    <feGaussianBlur stdDeviation="1.12"/>
  </filter>
  <filter id="filter11210" color-interpolation-filters="sRGB" height="1.096" width="1.096" x="-.048" y="-.048">
    <feGaussianBlur stdDeviation="4.48"/>
  </filter>
  <circle cx="128.752" cy="127.24801" filter="url(#filter11210)" opacity=".1" r="112"/>
  <circle cx="128.752" cy="125.24799" filter="url(#filter11191)" opacity=".1" r="112"/>
  <circle cx="128.752" cy="123.24799" opacity=".1" r="113.99999"/>
  <circle cx="128.752" cy="123.24799" fill="#8bd975" r="112"/>
  <path d="m128.752 11.248006a112 112 0 0 0 -112.000001 111.999994 112 112 0 0 0 .04102 1.16992 112 112 0 0 1 111.958981-111.169914 112 112 0 0 1 111.95898 110.830074 112 112 0 0 0 .041-.83008 112 112 0 0 0 -112-111.999994z" fill="#fff" opacity=".3"/>
  <path d="m128.752 235.248a112 112 0 0 1 -112.000001-112 112 112 0 0 1 .04102-1.16992 112 112 0 0 0 111.958981 111.16992 112 112 0 0 0 111.95898-110.83008 112 112 0 0 1 .041.83008 112 112 0 0 1 -112 112z" opacity=".2"/>
  <path d="m16.751953 123.24805c.219543 2.63999.266428 5.98571.402344 8.91797a112 112 0 0 0 1.226562 10.11914 112 112 0 0 0 2.453125 10.92187 112 112 0 0 0 3.529297 10.625 112 112 0 0 0 4.574219 10.21875 112 112 0 0 0 5.570312 9.71094 112 112 0 0 0 6.511719 9.10742 112 112 0 0 0 7.388672 8.41016 112 112 0 0 0 8.191406 7.63086 112 112 0 0 0 8.91211 6.77539 112 112 0 0 0 9.544922 5.85156 112 112 0 0 0 10.080078 4.86914 112 112 0 0 0 10.517578 3.83984 112 112 0 0 0 10.847653 2.76953 112 112 0 0 0 11.06836 1.67188 112 112 0 0 0 11.05664.55469c1.00274-.00122 2.05955-.08622 3.07227-.09961a112 112 0 0 0 4.97461-.17578 112 112 0 0 0 11.11523-1.34766 112 112 0 0 0 10.92188-2.45312 112 112 0 0 0 10.625-3.5293 112 112 0 0 0 10.21875-4.57422 112 112 0 0 0 9.71093-5.57031 112 112 0 0 0 9.10743-6.51172 112 112 0 0 0 8.41015-7.38867 112 112 0 0 0 7.63086-8.19141 112 112 0 0 0 6.77539-8.91211 112 112 0 0 0 5.85157-9.54492 112 112 0 0 0 4.86914-10.08008 112 112 0 0 0 3.83984-10.51758 112 112 0 0 0 2.76953-10.84765 112 112 0 0 0 1.63867-10.83008c-.1976-4.0827-.28991-8.00416-.00586-11.41992z" fill="#fff" opacity=".1"/>
  <g transform="matrix(3.5431353 0 0 3.5431353 11.70913 -813.97509)">
    <path d="m12.274855 282.84306v-2.60587h5.199174v5.21177h-5.199174zm36.394218 0v-2.60587h5.199174v5.21177h-5.199174zm-36.394218-36.48238v-2.60588h5.199174v5.21178h-5.199174zm36.394218 0v-2.60588h5.199174v5.21178h-5.199174z" fill="#418708"/>
    <ellipse cx="33.083" cy="264.51801" fill="none" rx="18.841" ry="18.886999" stroke="#418708" stroke-width="4.554784"/>
    <path d="m11.866006 264.36796v-5.79084h11.553722v2.89544h30.039673v5.79085h-30.039673v2.89541h-11.553722z" fill="#323936"/>
  </g>
  <g transform="matrix(3.5431353 0 0 3.5431353 -235.85298 -815.5033)">
    <path d="m102.95307 243.78481c-9.580909 0-17.691966 6.44306-20.263104 15.22365h-.953099v.56447h.953099c2.571138-8.78059 10.682195-15.22365 20.263104-15.22365 11.54491 0 20.95984 9.35315 21.11202 20.88215.001-.0943.007-.18759.007-.28223 0-11.6588-9.47978-21.16439-21.11918-21.16439zm-20.807181.40131v.56447h5.199316v-.56447zm36.394101 0v.56447h5.19931v-.56447zm-30.835378 14.82234c-.07882.18646-.154388.37456-.226559.56447h5.812846v-.56447zm5.586287 2.89568v.56447h25.945861c-.0348-.18959-.0752-.37723-.11631-.56447zm25.893491 6.35527c-1.52355 7.60486-8.19067 13.29926-16.23132 13.29926-6.982696 0-12.931027-4.29384-15.37359-10.40414h-.214431c2.294089 6.40886 8.392095 10.96861 15.588021 10.96861 8.23871 0 15.0382-5.9774 16.33716-13.86373zm-37.038501 12.409v.56448h5.199316v-.56448zm36.394101 0v.56448h5.19931v-.56448z" fill="#fff" opacity=".3"/>
    <path d="m102.95307 247.77512c-7.082817 0-13.099894 4.41852-15.475017 10.66874h.227112c2.51525-5.95005 8.380307-10.10427 15.247905-10.10427 7.93472 0 14.53072 5.54562 16.16738 12.99994h.11631c-1.4199-7.73755-8.14966-13.56441-16.28369-13.56441zm-20.807181 1.05839v.56447h5.199316v-.56447zm36.394101 0v.56447h5.19931v-.56447zm5.5251 15.83332c-.15218 11.529-9.56711 20.8816-21.11202 20.8816-9.689655 0-17.876063-6.58953-20.348548-15.52298h-.867655v.56448h.867655c2.472485 8.93344 10.658893 15.52297 20.348548 15.52297 11.6394 0 21.11918-9.50503 21.11918-21.16383 0-.0947-.006-.18788-.007-.28224zm-30.774191 2.4635v.56447h25.893491c.0375-.18733.0746-.37488.10584-.56447zm-5.92585 2.89512c.06798.18991.140395.37788.214984.56448h5.710866v-.56448zm-5.21916 15.29035v.56448h5.199316v-.56448zm36.394101 0v.56448h5.19931v-.56448z" opacity=".2"/>
  </g>
</svg>

<?xml version="1.0" encoding="UTF-8" standalone="no"?>
<svg
   xmlns:osb="http://www.openswatchbook.org/uri/2009/osb"
   xmlns:dc="http://purl.org/dc/elements/1.1/"
   xmlns:cc="http://creativecommons.org/ns#"
   xmlns:rdf="http://www.w3.org/1999/02/22-rdf-syntax-ns#"
   xmlns:svg="http://www.w3.org/2000/svg"
   xmlns="http://www.w3.org/2000/svg"
   xmlns:xlink="http://www.w3.org/1999/xlink"
   xmlns:sodipodi="http://sodipodi.sourceforge.net/DTD/sodipodi-0.dtd"
   xmlns:inkscape="http://www.inkscape.org/namespaces/inkscape"
   height="256"
   id="svg7384"
   version="1.1"
   width="256"
   sodipodi:docname="librecad.svg"
   inkscape:version="0.92.3 (2405546, 2018-03-11)">
  <sodipodi:namedview
     pagecolor="#ffffff"
     bordercolor="#666666"
     borderopacity="1"
     objecttolerance="10"
     gridtolerance="10"
     guidetolerance="10"
     inkscape:pageopacity="0"
     inkscape:pageshadow="2"
     inkscape:window-width="1920"
     inkscape:window-height="1009"
     id="namedview23"
     showgrid="false"
     inkscape:zoom="3.4011667"
     inkscape:cx="95.074192"
     inkscape:cy="128.752"
     inkscape:window-x="0"
     inkscape:window-y="34"
     inkscape:window-maximized="1"
     inkscape:current-layer="g893" />
  <metadata
     id="metadata20854">
    <rdf:RDF>
      <cc:Work
         rdf:about="">
        <dc:title></dc:title>
        <dc:format>image/svg+xml</dc:format>
        <dc:type
           rdf:resource="http://purl.org/dc/dcmitype/StillImage" />
      </cc:Work>
    </rdf:RDF>
  </metadata>
  <defs
     id="defs7386">
    <linearGradient
       id="linearGradient5606"
       osb:paint="solid">
      <stop
         id="stop5608"
         offset="0"
         style="stop-color:#000000;stop-opacity:1;" />
    </linearGradient>
    <linearGradient
       id="linearGradient4526"
       osb:paint="solid">
      <stop
         id="stop4528"
         offset="0"
         style="stop-color:#ffffff;stop-opacity:1;" />
    </linearGradient>
    <linearGradient
       id="linearGradient3600-4"
       osb:paint="gradient">
      <stop
         id="stop3602-7"
         offset="0"
         style="stop-color:#f4f4f4;stop-opacity:1" />
      <stop
         id="stop3604-6"
         offset="1"
         style="stop-color:#dbdbdb;stop-opacity:1" />
    </linearGradient>
    <clipPath
       clipPathUnits="userSpaceOnUse"
       id="clipPath1094">
      <path
         style="display:inline;opacity:1;fill:url(#linearGradient1098);fill-opacity:1;stroke:none;stroke-width:2;stroke-linecap:round;stroke-linejoin:round;stroke-miterlimit:4;stroke-dasharray:none;stroke-dashoffset:0;stroke-opacity:1;enable-background:new"
         d="M 188.96875,43.999998 C 261.6174,43.999998 272,54.356613 272,126.9375 v 58.125 C 272,257.64309 261.6174,268 188.96875,268 h -73.9375 C 42.3826,268 32,257.64309 32,185.0625 v -58.125 C 32,54.356613 42.3826,43.999998 115.03125,43.999998 Z"
         id="path1096"
         inkscape:connector-curvature="0"
         sodipodi:nodetypes="sssssssss" />
    </clipPath>
    <clipPath
       clipPathUnits="userSpaceOnUse"
       id="clipPath1100">
      <path
         style="display:inline;opacity:1;fill:url(#linearGradient1104);fill-opacity:1;stroke:none;stroke-width:2;stroke-linecap:round;stroke-linejoin:round;stroke-miterlimit:4;stroke-dasharray:none;stroke-dashoffset:0;stroke-opacity:1;enable-background:new"
         d="M 188.96875,44 C 261.6174,44 272,54.356615 272,126.9375 v 58.125 C 272,257.64309 261.6174,268 188.96875,268 h -73.9375 C 42.3826,268 32,257.64309 32,185.0625 v -58.125 C 32,54.356615 42.3826,44 115.03125,44 Z"
         id="path1102"
         inkscape:connector-curvature="0"
         sodipodi:nodetypes="sssssssss" />
    </clipPath>
    <filter
       inkscape:collect="always"
       style="color-interpolation-filters:sRGB"
       id="filter11191"
       x="-0.012"
       width="1.024"
       y="-0.012"
       height="1.024">
      <feGaussianBlur
         inkscape:collect="always"
         stdDeviation="1.12"
         id="feGaussianBlur11193" />
    </filter>
    <filter
       inkscape:collect="always"
       style="color-interpolation-filters:sRGB"
       id="filter11210"
       x="-0.048"
       width="1.096"
       y="-0.048"
       height="1.096">
      <feGaussianBlur
         inkscape:collect="always"
         stdDeviation="4.48"
         id="feGaussianBlur11212" />
    </filter>
    <linearGradient
       id="linearGradient1490"
       x1="33.076"
       x2="91.624001"
       y1="210.425"
       y2="262.80499"
       gradientUnits="userSpaceOnUse"
       xlink:href="#linearGradient1488"
       gradientTransform="matrix(2.1947377,0,0,2.1923444,-10.836741,-394.1216)" />
    <linearGradient
       id="linearGradient1488">
      <stop
         style="stop-color:#ff8b00"
         id="stop1484"
         offset="0" />
      <stop
         style="stop-color:#ffda2c"
         id="stop1486"
         offset="1" />
    </linearGradient>
    <linearGradient
       id="e"
       x1="43.844002"
       x2="-60"
       y1="234"
       y2="234"
       gradientTransform="matrix(1.0015,0,0,0.99993,72.09,56.015)"
       gradientUnits="userSpaceOnUse"
       xlink:href="#b" />
    <linearGradient
       id="b">
      <stop
         id="stop11"
         offset="0"
         stop-color="#d5d3cf" />
      <stop
         id="stop13"
         offset=".038"
         stop-color="#e3e2df" />
      <stop
         id="stop15"
         offset=".077"
         stop-color="#c0bfbc" />
      <stop
         id="stop17"
         offset=".923"
         stop-color="#c0bfbc" />
      <stop
         id="stop19"
         offset=".962"
         stop-color="#e3e2df" />
      <stop
         id="stop21"
         offset="1"
         stop-color="#d5d3cf" />
    </linearGradient>
  </defs>
  <g
     id="layer9"
     label="status"
     style="display:inline"
     transform="translate(-773.00022,327)" />
  <g
     id="layer2"
     style="display:inline"
     transform="translate(-532.00002,-40.000001)" />
  <g
     id="layer4"
     style="display:inline"
     transform="translate(-532.00002,-40.000001)" />
  <g
     id="g1812"
     style="display:inline"
     transform="translate(-532.00002,-40.000001)" />
  <g
     id="g6217"
     style="display:inline"
     transform="translate(-532.00002,-40.000001)" />
  <g
     id="layer3"
     style="display:inline"
     transform="translate(-532.00002,-40.000001)" />
  <g
     id="layer1"
     style="display:inline"
     transform="translate(-532.00002,-40.000001)" />
  <circle
     style="display:inline;opacity:0.1;fill:#000000;fill-opacity:1;stroke:none;stroke-width:1;stroke-linecap:round;stroke-linejoin:round;stroke-miterlimit:4;stroke-dasharray:none;stroke-opacity:1;filter:url(#filter11210);enable-background:new"
     id="path11042-0"
     r="112"
     cy="127.24801"
     cx="128.752" />
  <circle
     style="display:inline;opacity:0.1;fill:#000000;fill-opacity:1;stroke:none;stroke-width:1;stroke-linecap:round;stroke-linejoin:round;stroke-miterlimit:4;stroke-dasharray:none;stroke-opacity:1;filter:url(#filter11191);enable-background:new"
     id="path11042-6"
     r="112"
     cy="125.24799"
     cx="128.752" />
  <circle
     style="display:inline;opacity:0.1;fill:#000000;fill-opacity:1;stroke:none;stroke-width:0.99999988;stroke-linecap:round;stroke-linejoin:round;stroke-miterlimit:4;stroke-dasharray:none;stroke-opacity:1;enable-background:new"
     id="path11042-7"
     cy="123.24799"
     cx="128.752"
     r="113.99999" />
  <circle
     style="display:inline;opacity:1;fill:#8bd975;fill-opacity:1;stroke:none;stroke-width:1;stroke-linecap:round;stroke-linejoin:round;stroke-miterlimit:4;stroke-dasharray:none;stroke-opacity:1;enable-background:new"
     id="path11042"
     r="112"
     cy="123.24799"
     cx="128.752" />
  <path
     style="display:inline;opacity:0.3;fill:#ffffff;fill-opacity:1;stroke:none;stroke-width:1;stroke-linecap:round;stroke-linejoin:round;stroke-miterlimit:4;stroke-dasharray:none;stroke-opacity:1;enable-background:new"
     d="M 128.752,11.248006 A 112,112 0 0 0 16.751999,123.248 112,112 0 0 0 16.793019,124.41792 112,112 0 0 1 128.752,13.248006 112,112 0 0 1 240.71098,124.07808 a 112,112 0 0 0 0.041,-0.83008 112,112 0 0 0 -112,-111.999994 z"
     id="path11042-1"
     inkscape:connector-curvature="0" />
  <path
     inkscape:connector-curvature="0"
     style="display:inline;opacity:0.2;fill:#000000;fill-opacity:1;stroke:none;stroke-width:1;stroke-linecap:round;stroke-linejoin:round;stroke-miterlimit:4;stroke-dasharray:none;stroke-opacity:1;enable-background:new"
     d="m 128.752,235.248 a 112,112 0 0 1 -112.000001,-112 112,112 0 0 1 0.04102,-1.16992 A 112,112 0 0 0 128.752,233.248 112,112 0 0 0 240.71098,122.41792 a 112,112 0 0 1 0.041,0.83008 112,112 0 0 1 -112,112 z"
     id="path11042-1-7" />
  <path
     style="display:inline;opacity:0.1;fill:#ffffff;fill-opacity:1;stroke:none;stroke-width:11.14574432;stroke-linecap:round;stroke-linejoin:round;stroke-miterlimit:4;stroke-dasharray:none;stroke-opacity:1;enable-background:new"
     d="M 16.751953 123.24805 C 16.971496 125.88804 17.018381 129.23376 17.154297 132.16602 A 112 112 0 0 0 18.380859 142.28516 A 112 112 0 0 0 20.833984 153.20703 A 112 112 0 0 0 24.363281 163.83203 A 112 112 0 0 0 28.9375 174.05078 A 112 112 0 0 0 34.507812 183.76172 A 112 112 0 0 0 41.019531 192.86914 A 112 112 0 0 0 48.408203 201.2793 A 112 112 0 0 0 56.599609 208.91016 A 112 112 0 0 0 65.511719 215.68555 A 112 112 0 0 0 75.056641 221.53711 A 112 112 0 0 0 85.136719 226.40625 A 112 112 0 0 0 95.654297 230.24609 A 112 112 0 0 0 106.50195 233.01562 A 112 112 0 0 0 117.57031 234.6875 A 112 112 0 0 0 128.62695 235.24219 C 129.62969 235.24097 130.6865 235.15597 131.69922 235.14258 A 112 112 0 0 0 136.67383 234.9668 A 112 112 0 0 0 147.78906 233.61914 A 112 112 0 0 0 158.71094 231.16602 A 112 112 0 0 0 169.33594 227.63672 A 112 112 0 0 0 179.55469 223.0625 A 112 112 0 0 0 189.26562 217.49219 A 112 112 0 0 0 198.37305 210.98047 A 112 112 0 0 0 206.7832 203.5918 A 112 112 0 0 0 214.41406 195.40039 A 112 112 0 0 0 221.18945 186.48828 A 112 112 0 0 0 227.04102 176.94336 A 112 112 0 0 0 231.91016 166.86328 A 112 112 0 0 0 235.75 156.3457 A 112 112 0 0 0 238.51953 145.49805 A 112 112 0 0 0 240.1582 134.66797 C 239.9606 130.58527 239.86829 126.66381 240.15234 123.24805 L 16.751953 123.24805 z "
     id="rect12119" />
  <g
     transform="translate(-131.32984,-130.41863)"
     id="g37">
    <g
       transform="matrix(3.5431353,0,0,3.5431353,143.03897,-683.55646)"
       id="g35">
      <path
         inkscape:connector-curvature="0"
         style="fill:#418708"
         d="m 12.274855,282.84306 v -2.60587 h 5.199174 v 5.21177 h -5.199174 z m 36.394218,0 v -2.60587 h 5.199174 v 5.21177 H 48.669073 Z M 12.274855,246.36068 v -2.60588 h 5.199174 v 5.21178 h -5.199174 z m 36.394218,0 v -2.60588 h 5.199174 v 5.21178 h -5.199174 z"
         id="path30" />
      <ellipse
         style="fill:none;stroke:#418708;stroke-width:4.55478382"
         id="ellipse2327"
         cx="33.083"
         cy="264.51801"
         rx="18.841"
         ry="18.886999" />
      <path
         inkscape:connector-curvature="0"
         style="fill:#323936"
         d="m 11.866006,264.36796 v -5.79084 h 11.553722 v 2.89544 h 30.039673 v 5.79085 H 23.419728 v 2.89541 H 11.866006 Z"
         id="path33" />
    </g>
    <g
       transform="matrix(3.5431353,0,0,3.5431353,-104.52314,-685.08467)"
       id="g893">
      <path
         style="fill:#ffffff;fill-opacity:1;stroke-width:1;opacity:0.3"
         d="m 102.95307,243.78481 c -9.580909,0 -17.691966,6.44306 -20.263104,15.22365 h -0.953099 v 0.56447 h 0.953099 c 2.571138,-8.78059 10.682195,-15.22365 20.263104,-15.22365 11.54491,0 20.95984,9.35315 21.11202,20.88215 0.001,-0.0943 0.007,-0.18759 0.007,-0.28223 0,-11.6588 -9.47978,-21.16439 -21.11918,-21.16439 z m -20.807181,0.40131 v 0.56447 h 5.199316 v -0.56447 z m 36.394101,0 v 0.56447 h 5.19931 v -0.56447 z m -30.835378,14.82234 c -0.07882,0.18646 -0.154388,0.37456 -0.226559,0.56447 h 5.812846 v -0.56447 z m 5.586287,2.89568 v 0.56447 h 25.945861 c -0.0348,-0.18959 -0.0752,-0.37723 -0.11631,-0.56447 z m 25.893491,6.35527 c -1.52355,7.60486 -8.19067,13.29926 -16.23132,13.29926 -6.982696,0 -12.931027,-4.29384 -15.37359,-10.40414 h -0.214431 c 2.294089,6.40886 8.392095,10.96861 15.588021,10.96861 8.23871,0 15.0382,-5.9774 16.33716,-13.86373 z m -37.038501,12.409 v 0.56448 h 5.199316 v -0.56448 z m 36.394101,0 v 0.56448 h 5.19931 v -0.56448 z"
         id="path887"
         inkscape:connector-curvature="0" />
      <path
         style="fill:#000000;fill-opacity:1;stroke-width:1;opacity:0.2"
         d="m 102.95307,247.77512 c -7.082817,0 -13.099894,4.41852 -15.475017,10.66874 h 0.227112 c 2.51525,-5.95005 8.380307,-10.10427 15.247905,-10.10427 7.93472,0 14.53072,5.54562 16.16738,12.99994 h 0.11631 c -1.4199,-7.73755 -8.14966,-13.56441 -16.28369,-13.56441 z m -20.807181,1.05839 v 0.56447 h 5.199316 v -0.56447 z m 36.394101,0 v 0.56447 h 5.19931 v -0.56447 z m 5.5251,15.83332 c -0.15218,11.529 -9.56711,20.8816 -21.11202,20.8816 -9.689655,0 -17.876063,-6.58953 -20.348548,-15.52298 h -0.867655 v 0.56448 h 0.867655 c 2.472485,8.93344 10.658893,15.52297 20.348548,15.52297 11.6394,0 21.11918,-9.50503 21.11918,-21.16383 0,-0.0947 -0.006,-0.18788 -0.007,-0.28224 z m -30.774191,2.4635 v 0.56447 h 25.893491 c 0.0375,-0.18733 0.0746,-0.37488 0.10584,-0.56447 z m -5.92585,2.89512 c 0.06798,0.18991 0.140395,0.37788 0.214984,0.56448 h 5.710866 v -0.56448 z m -5.21916,15.29035 v 0.56448 h 5.199316 v -0.56448 z m 36.394101,0 v 0.56448 h 5.19931 v -0.56448 z"
         id="path901"
         inkscape:connector-curvature="0" />
    </g>
  </g>
</svg>
